X: 9859
T: Dermie Diamond's
R: reel
M: 4/4
K: Dmajor
.B2 B>(F A2) A>(B|d>)(e f>)(d e>)(d B>)(G|.B2) B>(F A>)(B d>)(e|1 f>)(a (3gfe) .d2 d>(c:|2 f>(a (3gfe) .d2 d>e-|
(f<a) {g}a>(f g>)(a b>)(g|a>)(f d>)(f e>)(d B>)(d|f<a) {g}a>(f g>)(a b>)(g|a>)(f (3efe) d2 d>e-|
(f<a) {g}a>(f g>)(a b>)(g|a>)(f d>)(f e>)(d c>)(d|B>)(D B>)(D A>)(B d>)(e|f>)(a (3gfe) d2 d>c-||

